X: 100
T: Pollonesse #100
M: 3/4
L: 1/16
R: Pollonesse
K: Bb
Q: 110
B2B2 dcBA B4|d2d2 fedc d4|FGAB c2AF d2BF|f2BF c2BF c4|
FGAB AcAF BdBF|cecF BdBF c4|E2g2 D2f2 C2e2| dcBA A4 B,4:|
|:f2ef f2ef f2ga|b2d2 d2c2 c2B2|F2EF F2EF F2GA|B2D2 D2C2 C2B,2|
FGAB c2AF d2BF|e2BF d2BF c4|FGAB ABAF BdBG|cecF BdB[FA] c4|
E2g2 D2f2 C2e2|dcBA B4B,4:|